X:31
T:Jenny Bawbee. TJD.31
T:Polly Put The Kettle On,aka. TJD.31
M:2/4
L:1/8
Q:1/4=120
S:T.J.Dixon MS1, Lincolnshire, 1798
R:quick step
N:Repeat mark added at end
A:Lincolnshire, Holton le Moor
Z:vmp.R.Greig2010
K:D
a>bag|fdd2|Bged|dcBA|a>bag|fdd2|Bgec|d2d2:|!
|:fdge|fdge|B/B/B ed|cAAg|fdge|fdge|B/B/B ec|d2d2:|

